X: 10
T:Miss Bain's Reel (#210)
M:4/4
L:1/8
S:Aird's Selections 1782-97
R:Reel
K:D
B|AFDF AdcB|dfeg e/2e/2e e2|AFDF AdcA|BdAF D/2D/2D D:|
f/2g/2|afdf abaf|geaf e/2e/2e e/2f/2g|afdf abaf|geaf d/2d/2d df/2g/2|
afdf abaf|geaf e/2e/2e eg|fdec dBAF|GBAF D/2D/2D D||

